svgs/light/cloud-rain.svg

<svg xmlns="http://www.w3.org/2000/svg" viewBox="0 0 512 512"><!-- Font Awesome Pro 6.0.0-alpha2 by @fontawesome - https://fontawesome.com License - https://fontawesome.com/license (Commercial License) --><path d="M414.688 112.219C407.156 66.75 367.562 32 320 32C301.031 32 282.906 37.469 267.406 47.688C246.688 18.219 212.594 0 176 0C114.25 0 64 50.25 64 112C64 114.719 64.094 117.438 64.312 120.188C25.844 136.062 0 173.656 0 216C0 273.344 46.656 320 104 320H408C465.344 320 512 273.344 512 216C512 160.906 468.938 115.688 414.688 112.219ZM408 288H104C64.312 288 32 255.688 32 216C32 183.406 54.188 154.875 85.969 146.625C94.187 144.469 99.312 136.281 97.625 127.969C96.562 122.781 96 117.469 96 112C96 67.875 131.875 32 176 32C206.969 32 235.406 50.312 248.469 78.625C250.656 83.406 255.062 86.812 260.25 87.687C265.438 88.781 270.719 86.937 274.406 83.156C286.562 70.812 302.75 64 320 64C355.281 64 384 92.719 384 128C384 136.844 391.156 144 400 144H408C447.688 144 480 176.312 480 216S447.688 288 408 288ZM242.844 358.906C232.156 374.375 197.344 426.844 197.344 453.344C197.344 485.688 223.656 512 256 512S314.656 485.688 314.656 453.344C314.656 426.844 279.844 374.375 269.156 358.906C263.219 350.281 248.781 350.281 242.844 358.906ZM256 480C241.312 480 229.344 468.031 229.344 453.344C229.344 444.781 241.594 420.656 256 397.281C270.406 420.656 282.656 444.781 282.656 453.344C282.656 468.031 270.688 480 256 480ZM82.844 358.906C72.156 374.375 37.344 426.844 37.344 453.344C37.344 485.688 63.656 512 96 512S154.656 485.688 154.656 453.344C154.656 426.844 119.844 374.375 109.156 358.906C103.219 350.281 88.781 350.281 82.844 358.906ZM96 480C81.312 480 69.344 468.031 69.344 453.344C69.344 444.781 81.594 420.656 96 397.281C110.406 420.656 122.656 444.781 122.656 453.344C122.656 468.031 110.688 480 96 480ZM402.844 358.906C392.156 374.375 357.344 426.844 357.344 453.344C357.344 485.688 383.656 512 416 512S474.656 485.688 474.656 453.344C474.656 426.844 439.844 374.375 429.156 358.906C423.219 350.281 408.781 350.281 402.844 358.906ZM416 480C401.312 480 389.344 468.031 389.344 453.344C389.344 444.781 401.594 420.656 416 397.281C430.406 420.656 442.656 444.781 442.656 453.344C442.656 468.031 430.688 480 416 480Z"/></svg>

<svg xmlns="http://www.w3.org/2000/svg" viewBox="0 0 512 512"><!--! Font Awesome Pro 6.0.0-alpha3 by @fontawesome - https://fontawesome.com License - https://fontawesome.com/license (Commercial License) --><path d="M414.7 112.2C407.2 66.75 367.6 32 320 32c-18.97 0-37.09 5.469-52.59 15.69C246.7 18.22 212.6 0 176 0C114.3 0 64 50.25 64 112c0 2.719 .0938 5.438 .3125 8.188C25.84 136.1 0 173.7 0 216C0 273.3 46.66 320 104 320h304C465.3 320 512 273.3 512 216C512 160.9 468.9 115.7 414.7 112.2zM408 288h-304C64.31 288 32 255.7 32 216c0-32.59 22.19-61.13 53.97-69.38c8.219-2.156 13.34-10.34 11.66-18.66C96.56 122.8 96 117.5 96 112C96 67.88 131.9 32 176 32c30.97 0 59.41 18.31 72.47 46.63c2.188 4.781 6.594 8.188 11.78 9.062c5.188 1.094 10.47-.75 14.16-4.531C286.6 70.81 302.8 64 320 64c35.28 0 64 28.72 64 64c0 8.844 7.156 16 16 16h8C447.7 144 480 176.3 480 216S447.7 288 408 288zM242.8 358.9c-10.69 15.47-45.5 67.94-45.5 94.44C197.3 485.7 223.7 512 256 512s58.66-26.31 58.66-58.66c0-26.5-34.81-78.97-45.5-94.44C263.2 350.3 248.8 350.3 242.8 358.9zM256 480c-14.69 0-26.66-11.97-26.66-26.66c0-8.562 12.25-32.69 26.66-56.06c14.41 23.38 26.66 47.5 26.66 56.06C282.7 468 270.7 480 256 480zM82.84 358.9c-10.69 15.47-45.5 67.94-45.5 94.44C37.34 485.7 63.66 512 96 512s58.66-26.31 58.66-58.66c0-26.5-34.81-78.97-45.5-94.44C103.2 350.3 88.78 350.3 82.84 358.9zM96 480c-14.69 0-26.66-11.97-26.66-26.66c0-8.562 12.25-32.69 26.66-56.06c14.41 23.38 26.66 47.5 26.66 56.06C122.7 468 110.7 480 96 480zM402.8 358.9c-10.69 15.47-45.5 67.94-45.5 94.44C357.3 485.7 383.7 512 416 512s58.66-26.31 58.66-58.66c0-26.5-34.81-78.97-45.5-94.44C423.2 350.3 408.8 350.3 402.8 358.9zM416 480c-14.69 0-26.66-11.97-26.66-26.66c0-8.562 12.25-32.69 26.66-56.06c14.41 23.38 26.66 47.5 26.66 56.06C442.7 468 430.7 480 416 480z"/></svg>
